svg/emoji_u23f9.svg

<svg enable-background="new 0 0 128 128" viewBox="0 0 128 128" xmlns="http://www.w3.org/2000/svg"><linearGradient id="a" x1="64" x2="64" y1="4.25" y2="123.91" gradientUnits="userSpaceOnUse"><stop stop-color="#FFAB40" offset="0"/><stop stop-color="#FF6D00" offset="1"/></linearGradient><path d="m116 124h-104c-4.42 0-8-3.58-8-8v-104c0-4.42 3.58-8 8-8h104c4.42 0 8 3.58 8 8v104c0 4.42-3.58 8-8 8z" fill="url(#a)"/><g opacity=".2"><path d="m116 7c2.76 0 5 2.24 5 5v104c0 2.76-2.24 5-5 5h-104c-2.76 0-5-2.24-5-5v-104c0-2.76 2.24-5 5-5h104m0-3h-104c-4.42 0-8 3.58-8 8v104c0 4.42 3.58 8 8 8h104c4.42 0 8-3.58 8-8v-104c0-4.42-3.58-8-8-8z" fill="#424242"/></g><g opacity=".2"><path d="m89.2 36c1.55 0 2.8 1.25 2.8 2.8v50.4c0 1.55-1.25 2.8-2.8 2.8h-50.4c-1.55 0-2.8-1.25-2.8-2.8v-50.4c0-1.55 1.25-2.8 2.8-2.8h50.4m0-3h-50.4c-3.2 0-5.8 2.6-5.8 5.8v50.4c0 3.2 2.6 5.8 5.8 5.8h50.4c3.2 0 5.8-2.6 5.8-5.8v-50.4c0-3.2-2.6-5.8-5.8-5.8z" fill="#424242"/></g><path d="m89.2 92h-50.4c-1.55 0-2.8-1.25-2.8-2.8v-50.4c0-1.55 1.25-2.8 2.8-2.8h50.4c1.55 0 2.8 1.25 2.8 2.8v50.4c0 1.55-1.25 2.8-2.8 2.8z" fill="#FAFAFA"/></svg>

<svg width="128" height="128" style="enable-background:new 0 0 128 128;" xmlns="http://www.w3.org/2000/svg" xmlns:xlink="http://www.w3.org/1999/xlink">
  <g>
    <linearGradient id="SVGID_1_" gradientUnits="userSpaceOnUse" x1="64" x2="64" y1="4.25" y2="123.9133">
      <stop offset="0" style="stop-color:#FFAB40"/>
      <stop offset="1" style="stop-color:#FF6D00"/>
    </linearGradient>
    <path d="M116,124H12c-4.42,0-8-3.58-8-8V12c0-4.42,3.58-8,8-8h104c4.42,0,8,3.58,8,8v104 C124,120.42,120.42,124,116,124z" style="fill:url(#SVGID_1_);"/>
    <g style="opacity:0.2;">
      <path d="M116,7c2.76,0,5,2.24,5,5v104c0,2.76-2.24,5-5,5H12c-2.76,0-5-2.24-5-5V12c0-2.76,2.24-5,5-5H116 M116,4H12c-4.42,0-8,3.58-8,8v104c0,4.42,3.58,8,8,8h104c4.42,0,8-3.58,8-8V12C124,7.58,120.42,4,116,4L116,4z" style="fill:#424242;"/>
    </g>
    <g style="opacity:0.2;">
      <path d="M89.2,36c1.55,0,2.8,1.25,2.8,2.8v50.4c0,1.55-1.25,2.8-2.8,2.8H38.8c-1.55,0-2.8-1.25-2.8-2.8 V38.8c0-1.55,1.25-2.8,2.8-2.8H89.2 M89.2,33H38.8c-3.2,0-5.8,2.6-5.8,5.8v50.4c0,3.2,2.6,5.8,5.8,5.8h50.4c3.2,0,5.8-2.6,5.8-5.8 V38.8C95,35.6,92.4,33,89.2,33L89.2,33z" style="fill:#424242;"/>
    </g>
    <path d="M89.2,92H38.8c-1.55,0-2.8-1.25-2.8-2.8V38.8c0-1.55,1.25-2.8,2.8-2.8h50.4c1.55,0,2.8,1.25,2.8,2.8 v50.4C92,90.75,90.75,92,89.2,92z" style="fill:#FAFAFA;"/>
  </g>
</svg>
